@extra/phlat-icons/symbolic-22/package-installed-outdated.svg

<?xml version="1.0" encoding="UTF-8" standalone="no"?>
<svg xmlns="http://www.w3.org/2000/svg" version="1.1" viewBox="-3 -3 22 22">
 <g font-family="Sans" font-weight="400" fill="#f60">
  <path style="text-decoration-line:none;text-transform:none;text-indent:0" d="m3.469 1a2.468 2.468 0 0 0 -2.47 2.469v9.062a2.468 2.468 0 0 0 2.471 2.469h9.062a2.468 2.468 0 0 0 2.468 -2.469v-9.061a2.468 2.468 0 0 0 -2.47 -2.47zm0 1h9.062c0.832 0 1.469 0.637 1.469 1.469v9.062c0 0.832-0.637 1.469-1.47 1.469h-9.06a1.443 1.443 0 0 1 -1.47 -1.469v-9.061c0-0.833 0.637-1.47 1.47-1.47z" overflow="visible"/>
  <path style="text-decoration-line:none;text-transform:none;text-indent:0" d="m14.177 2.823l-5.677 5.552-1.938-1.938-2.125 2.125 3 3 1.063 1.063 1.062-1.063 4.615-4.739z" overflow="visible"/>
 </g>
</svg>

<svg xmlns="http://www.w3.org/2000/svg" viewBox="-3 -3 22 22">
    <g font-family="Sans" font-weight="400" fill="#f60">
        <path style="text-decoration-line:none;text-transform:none;text-indent:0" d="M3.469 1a2.468 2.468 0 0 0-2.47 2.469v9.062A2.468 2.468 0 0 0 3.47 15h9.062A2.468 2.468 0 0 0 15 12.531V3.47A2.468 2.468 0 0 0 12.53 1zm0 1h9.062C13.363 2 14 2.637 14 3.469v9.062c0 .832-.637 1.469-1.47 1.469H3.47A1.443 1.443 0 0 1 2 12.531V3.47C2 2.637 2.637 2 3.47 2z" overflow="visible"/>
        <path style="text-decoration-line:none;text-transform:none;text-indent:0" d="M14.177 2.823L8.5 8.375 6.562 6.437 4.437 8.562l3 3L8.5 12.625l1.062-1.063 4.615-4.739z" overflow="visible"/>
    </g>
</svg>
